X:1
T:James Gibb editions
T:It was the very noon of night - Barnby
T:#
%%score [ ( 1 2 ) ( 3 4 ) ]
L:1/8
Q:1/4=126
M:4/4
K:F
V:1 treble nm="Midi_74"
V:2 treble 
V:3 bass nm="Midi_74"
V:4 bass 
V:1
"^allegro""^Edward Churton\n(1800-74)""^It was the very noon of night""^Joseph Barnby\n(1838-96)""^14 14. 14 14. 14 14"!mf! A2 | %1
w: It|
w: O|
w: I|
w: When|
w: I|
 A2 A2 F2 G2 | A3 B A2 A2 | G2 F2 G2 ^G2 | A6 A2 |[M:4/4] A2 A2 F2 G2 | A3 B A2 d2 | c2 F2 G2 B2 | %8
w: was the ve- ry|noon of night: the|stars a- bove the|fold, More|sure than clock or|chim- ing bell, the|hour of mid- night|
w: ne'er could night- in-|gale at dawn sa-|lute the ris- ing|day With|sweet- ness like that|bird of song in|his im- mor- tal|
w: roused me at the|pier- cing strain, but|shrunk as from the|ray Of|sum- mer light- ning;|all a- round so|bright the splen- dour|
w: once the rapt- urous|trance was past, that|so my sense could|bind, I~|left my sheep to|Him whose care breathed|in the wes- tern|
w: ha- sted to a|low- roofed shed, for|so the An- gel|bade; And|bowed be- fore the|low- ly rack where|Love Di- vine was|
 A6!p! A2 ||[K:D] x8 | !>!d3 d c2 A2 | !>!d3 d c2 A2 | d2 c2 B2 c2 | A6 A2 | d3 d c2 A2 | %15
w: told: When||from the heav'ns there|came a voice, and|forms were seen~ to|shine, Still|bright- 'ning as the|
w: ~lay: O||ne'er were wood- notes|heard at eve by|banks with pop- lar|shade So|thril- ling as the|
w: lay. For||oh, it ~mas- tered|sight and sense, to|see that glo- ry|shine, To|hear that min- strel|
w: wind; I||left them, for in-|stead of snow, I|trod on blade and|flower, And|ice ~dis- solved in|
w: Iaid: A||new- born Babe, like|ten- der Lamb, with|Li- on's strength there|smiled; For|Li- on's strength, im-|
 d3 d c2 B2 | e2 d2 B2"^I" c2 | A6 A2 | B2 e2 A2 A2 | G3 A F2 F2 | G2 G2 A2 A2 | B6!f! d2 | %22
w: mu- sic rose with|light and love di-|vine. With|love di- vine, the|song be- gan; there|shone a light se-|rene: *|
w: con- cert sweet by|heaven- ly harp- ings|made; For|love di- vine was|in each chord, and|fill'd each pause be-|tween: *|
w: in the clouds, who|sang of Love Di-|vine, To|see that form with|bird- like wings, of|more than mor- tal|mien: O|
w: star- ry rays at|morn- ing's gra- cious|hour, Re-|veal- ing where on|earth the steps of|Love Di- vine had|been; *|
w: mor- tal might, was|in that new- born|Child; That|Love Di- vine in|child- like form had|God for e- ver|been: *|
 c3 B A2 d2 | c3 B A2 B2 | G2 F2 F2 E2 | A6!ff! d2 | c3 B A2 d2 | c2 B2 A2 B2 | A2 GF E3 E | D6 |] %30
w: who hath heard what|I have heard, or|seen what I have|seen, O|who hath heard what|I have heard, or|seen what * I have|seen?|
w: ||||||||
w: ||||||||
w: ||||||||
w: ||||||||
V:2
 A2 | A2 A2 F2 G2 | A3 B A2 ^C2 | D2 D2 D2 D2 | (D4 ^C2) A2 |[M:4/4] A2 A2 F2 G2 | A3 B A2 d2 | %7
 c2 F2 G2 B2 | A6 G2 ||[K:D] x8 | !>!F3 F E2 G2 | !>!F3 F E2 G2 | F2 F2 ^G2 G2 | %13
 (A2 !courtesy!=G2 F2) E2 | A3 A A2 E2 | A3 A A2 A2 | A2 A2 A2 ^G2 | A6 A2 | %18
 !courtesy!=G2 G2 G2 F2 | F2 E2 D2 D2 | D2 D2 E2 F2 | G6 G2 | G3 G F2 E2 | E2 G2 F2 F2 | %24
 E2 D2 D2 C2 | D6 D2 | E2 E2 E2 DE | FA, B,C D2 D2 | F2 D2 D2 C2 | D6 |] %30
V:3
!mf! A,2 | A,2 A,2 F,2 G,2 | A,3 B, A,2 A,2 | B,2 A,2 G,2 F,2 | (F,4 E,2) A,2 | %5
[M:4/4] A,2 A,2 F,2 G,2 | A,3 B, A,2 D2 | C2 F,2 G,2 B,2 | A,6!p! ^C2 ||[K:D] x8 | %10
 !>!A,3 A, A,2 A,2 | !>!A,3 A, A,2 A,2 | F2 E2 D2 E2 | (C2 D4) C2 | D3 D E2 C2 | D3 D E2!f! F2 | %16
 !courtesy!=G2 F2 D2 E2 | C6!mf! C2 | D2 B,2 C2 D2 | B,2 C2 D2 A,2 | D2 D2"^1" =C2 C2 | %21
 B,6!f! B,2 | C2 E2 A,2 B,2 | C2 E2 A,2"^1" F,2 | B,2 A,B, A,2 A,2 | A,6!ff! A,2 | %26
 A,2 ^G,2 A,2 F,=G, | A,C DE F2 E2 | A,2 B,A, G,2 G,2 | F,6 |] %30
V:4
 A,2 | A,2 A,2 F,2 G,2 | A,3 B, A,2 A,,2 | D,3 !courtesy!=C, B,,2 B,,2 | A,,6 A,2 | %5
[M:4/4] A,2 A,2 F,2 G,2 | A,3 B, A,2 D2 | C2 F,2 G,2 B,2 | A,6 A,2 ||[K:D] x8 | !>!D,3 D, D,2 D,2 | %11
 !>!D,3 D, D,2 D,2 | D,2 D,2 E,2 E,2 | (A,2 B,2 A,2) G,2 | F,3 F, E,2 G,2 | F,3 F, E,2 D,2 | %16
 C,2 D,2 F,2 E,2 | A,4 A,,4 | A,,2 A,,2 A,,2 A,,2 | A,,2 A,,2 B,,2 =C,2 | B,,2 B,,2 A,,2 A,,2 | %21
 G,,6 G,,2 | A,,2 C,2 D,2 ^G,,2 | A,,2 C,2 D,2 ^D,2 | E,2 F,G, A,2 G,2 | F,6 =F,2 | %26
 E,2 D,2 C,2 B,,2 | A,,2 G,,2 F,,2 G,,2 | A,,2 A,,2 A,,2 A,,2 | D,6 |] %30

